flags/vg.svg

<svg width="512" height="512" viewBox="0 0 512 512" fill="none" xmlns="http://www.w3.org/2000/svg">
<rect width="512" height="512" fill="var(--flag-palette-navy, #002266)"/>
<rect width="256" height="256" fill="var(--flag-palette-navy, #002266)"/>
<path d="M232 256H256V232L152 128L256 24V0H232L128 104L24 0H0V24L104 128L0 232V256H24L128 152L232 256Z" fill="var(--flag-palette-white, #eeeeee)"/>
<path d="M256 160V96H160V0H96V96H0V160H96V256H160V160H256Z" fill="var(--flag-palette-white, #eeeeee)"/>
<path d="M256 144V112H144V0H112V112H0V144H112V256H144V144H256Z" fill="var(--flag-palette-bright-red, #d80027)"/>
<path d="M0 16V0L96 96H80L0 16Z" fill="var(--flag-palette-bright-red, #d80027)"/>
<path d="M256 240L256 256L160 160L176 160L256 240Z" fill="var(--flag-palette-bright-red, #d80027)"/>
<path d="M16 256L0 256L96 160L96 176L16 256Z" fill="var(--flag-palette-bright-red, #d80027)"/>
<path d="M240 -6.99382e-07L256 0L160 96L160 80L240 -6.99382e-07Z" fill="var(--flag-palette-bright-red, #d80027)"/>
<path d="M306.09 139.121V261.565V261.566C306.091 321.21 384.009 339.485 384.009 339.485C384.009 339.485 461.927 321.21 461.928 261.566V261.565V139.121H306.09Z" fill="var(--flag-palette-dark-green, #496e2d)"/>
<path d="M367.312 194.777H400.706V283.827H367.312V194.777Z" fill="var(--flag-palette-white, #eeeeee)"/>
<path d="M384.01 211.475C393.232 211.475 400.707 203.999 400.707 194.777C400.707 185.556 393.232 178.08 384.01 178.08C374.788 178.08 367.312 185.556 367.312 194.777C367.312 203.999 374.788 211.475 384.01 211.475Z" fill="var(--flag-palette-dark-brown, #584528)"/>
<path d="M328.354 161.385H350.616V183.648H328.354V161.385Z" fill="var(--flag-palette-yellow, #ffda44)"/>
<path d="M328.354 211.475H350.616V233.737H328.354V211.475Z" fill="var(--flag-palette-yellow, #ffda44)"/>
<path d="M328.354 261.566H350.616V283.829H328.354V261.566Z" fill="var(--flag-palette-yellow, #ffda44)"/>
<path d="M417.404 161.385H439.667V183.648H417.404V161.385Z" fill="var(--flag-palette-yellow, #ffda44)"/>
<path d="M417.404 211.475H439.667V233.737H417.404V211.475Z" fill="var(--flag-palette-yellow, #ffda44)"/>
<path d="M417.404 261.566H439.667V283.829H417.404V261.566Z" fill="var(--flag-palette-yellow, #ffda44)"/>
<path fill-rule="evenodd" clip-rule="evenodd" d="M296.685 343.465C300.394 345.578 304.222 347.579 308.06 349.415L308.654 349.696L307.342 352.6L306.068 355.425L308.893 356.7C320.705 362.037 333.125 366.119 345.807 368.834C358.342 371.517 371.208 372.879 384.037 372.879C396.867 372.879 409.733 371.517 422.272 368.834C434.95 366.119 447.369 362.038 459.186 356.7L462.012 355.425L460.737 352.6L459.426 349.696L460.019 349.415C463.862 347.579 467.69 345.578 471.394 343.465L476.01 340.833L471.445 338.114C468.205 336.181 464.994 334.133 461.883 332.021C461.763 327.981 461.524 323.927 461.174 319.947L460.751 315.133L456.554 317.526C452.781 319.675 448.869 321.681 444.921 323.49L438.728 326.324L440.504 331.188C422.516 338.417 403.553 342.08 384.037 342.08C364.522 342.08 345.388 338.385 327.327 331.087L329.352 326.32L323.153 323.485C319.21 321.681 315.294 319.675 311.521 317.522L307.278 315.106L306.896 319.974C306.583 323.968 306.385 328.036 306.307 332.086C303.169 334.179 299.929 336.199 296.657 338.1L292.01 340.806L296.685 343.47L296.685 343.465Z" fill="var(--flag-palette-yellow, #ffda44)"/>
</svg>

<svg xmlns="http://www.w3.org/2000/svg" width="512" height="512" fill="none"><path fill="#026" d="M0 0h512v512H0z"/><path fill="#026" d="M0 0h256v256H0z"/><path fill="#EEE" d="M232 256h24v-24L152 128 256 24V0h-24L128 104 24 0H0v24l104 104L0 232v24h24l104-104z"/><path fill="#EEE" d="M256 160V96h-96V0H96v96H0v64h96v96h64v-96z"/><path fill="var(--flag-palette-bright-red, #d80027)" d="M256 144v-32H144V0h-32v112H0v32h112v112h32V144z"/><path fill="var(--flag-palette-bright-red, #d80027)" d="M0 16V0l96 96H80zm256 224v16l-96-96h16zM16 256H0l96-96v16zM240 0h16l-96 96V80z"/><path fill="var(--flag-palette-dark-green, #496e2d)" d="M306 139.1v122.5c0 59.6 78 77.9 78 77.9s78-18.3 78-78V139.2z"/><path fill="#EEE" d="M367.3 194.8h33.4v89h-33.4z"/><path fill="var(--flag-palette-dark-brown, #584528)" d="M384 211.5a16.7 16.7 0 1 0 0-33.4 16.7 16.7 0 0 0 0 33.4"/><path fill="var(--flag-palette-yellow, #ffda44)" d="M328.4 161.4h22.2v22.2h-22.2zm0 50.1h22.2v22.2h-22.2zm0 50.1h22.2v22.2h-22.2zm89-100.2h22.3v22.2h-22.3zm0 50.1h22.3v22.2h-22.3zm0 50.1h22.3v22.2h-22.3z"/><path fill="var(--flag-palette-yellow, #ffda44)" fill-rule="evenodd" d="M296.7 343.5a180 180 0 0 0 11.4 6l.6.2-1.4 2.9-1.2 2.8 2.8 1.3a183 183 0 0 0 150.3 0l2.8-1.3-1.3-2.8-1.3-2.9.6-.3q5.9-2.7 11.4-6l4.6-2.6-4.6-2.7-9.5-6q-.2-6.2-.7-12.2l-.4-4.8-4.2 2.4a149 149 0 0 1-11.7 6l-6.2 2.8 1.8 4.9a151 151 0 0 1-113.2-.1l2-4.8-6.1-2.8q-6-2.7-11.7-6l-4.2-2.4-.4 4.9-.6 12q-4.7 3.3-9.6 6.1l-4.7 2.7z" clip-rule="evenodd"/></svg>
